X:533
T:Peas Upon aTrencher
M:2/4
L:1/8
B:O'Neill's 533
N:Moderate
Z:Transcribed by Dave Wooldridge
K:G
(D/2F/2) \
|GFGA|B2 BB|AGAB|dc2 BA|
GFGA|Bcdg|dBdcA|G3||
g \
|gGGA|B2 BB|cAAB|c2 BA|
GFGA|BcdHg|dBdcA|G3||
